svg/u1f91e.svg

<svg viewBox="0 0 128 128" xmlns="http://www.w3.org/2000/svg" xmlns:xlink="http://www.w3.org/1999/xlink">
  <radialGradient id="i" cx="62.596" cy="83.067" gradientTransform="matrix(.9722 .2342 -.3166 1.3142 28.036 -40.758)" gradientUnits="userSpaceOnUse" r="35.101">
    <stop offset="0" stop-color="#FFB300"/>
    <stop offset=".6888" stop-color="#FFCA28"/>
    <stop offset="1" stop-color="#FFB300"/>
  </radialGradient>
  <path d="m63.78 122.64c-25.12 0-37.33-12.86-37.33-39.31v-22.28c0-0.8 0.06-1.29 0.12-1.59 0.73 0.42 2.08 1.58 3.11 2.48 3.42 2.96 8.09 7 13.48 7h29.69c0.48 0 1.2-0.01 2.09-0.03 1.45-0.03 3.37-0.07 5.51-0.07 16.66 0 17.85 2.49 17.93 2.77 0.28 0.97 0.65 1.96 1.04 3 1.11 2.95 2.36 6.28 2.36 11.13 0 13.78-4.93 36.9-38 36.9z" fill="url(#i)"/>
  <path d="m27.95 62.43c0.26 0.22 0.51 0.44 0.75 0.64 3.59 3.11 8.52 7.37 14.46 7.37h29.69c0.49 0 1.21-0.01 2.12-0.03 1.42-0.03 3.36-0.07 5.49-0.07 13.01 0 15.99 1.53 16.57 1.96 0.28 0.93 0.63 1.86 1 2.84 1.06 2.83 2.27 6.03 2.27 10.6 0 7-1.34 16.92-7.7 24.44-6.15 7.27-15.84 10.96-28.8 10.96-13.08 0-22.64-3.65-28.42-10.86-4.92-6.14-7.41-15.2-7.41-26.94v-20.91m-1.76-4.62c-0.81 0-1.26 0.9-1.26 3.24v22.28c0 22.44 8.58 40.81 38.83 40.81s39.5-19.25 39.5-38.4c0-6.91-2.47-11.05-3.46-14.54-0.95-3.34-11.58-3.86-19.37-3.86-3.45 0-6.35 0.1-7.6 0.1h-29.69c-7.67 0.01-14.28-9.63-16.95-9.63z" fill="#EDA600"/>
  <radialGradient id="h" cx="1697.9" cy="-795.66" gradientTransform="matrix(-.808 -.266 -.6312 1.9172 959.46 1992.5)" gradientUnits="userSpaceOnUse" r="22.669">
    <stop offset="0" stop-color="#FFCA28"/>
    <stop offset=".5" stop-color="#FFB300"/>
  </radialGradient>
  <path d="m71.37 80.08c-0.88 0-1.76-0.14-2.61-0.42-4.36-1.44-6.75-6.16-5.31-10.52l19.11-58.05c1.13-3.43 4.31-5.73 7.91-5.73 0.88 0 1.76 0.14 2.61 0.42 4.36 1.44 6.75 6.16 5.31 10.52l-19.1 58.05c-1.13 3.42-4.31 5.73-7.92 5.73z" fill="url(#h)"/>
  <path d="m90.48 6.86c0.72 0 1.44 0.12 2.14 0.35 1.73 0.57 3.14 1.78 3.96 3.41s0.96 3.48 0.39 5.21l-19.11 58.05c-0.93 2.81-3.53 4.7-6.49 4.7-0.72 0-1.44-0.12-2.14-0.35-1.73-0.57-3.14-1.78-3.96-3.41s-0.96-3.48-0.39-5.21l19.11-58.05c0.93-2.81 3.53-4.7 6.49-4.7m0-3c-4.13 0-7.98 2.62-9.34 6.76l-19.11 58.05c-1.7 5.16 1.11 10.72 6.26 12.41 1.02 0.34 2.06 0.5 3.08 0.5 4.13 0 7.98-2.62 9.34-6.76l19.11-58.05c1.7-5.16-1.11-10.72-6.26-12.41-1.02-0.34-2.06-0.5-3.08-0.5z" fill="#EDA600"/>
  <radialGradient id="g" cx="-137.01" cy="-38.954" gradientTransform="matrix(.0108 1.05 -.6645 .0104 30.069 194.26)" gradientUnits="userSpaceOnUse" r="21.561">
    <stop offset=".5993" stop-color="#FFCA28"/>
    <stop offset="1" stop-color="#FFB300"/>
  </radialGradient>
  <path d="m54.73 79.11c-4.72 0-8.56-3.84-8.56-8.56v-18.45c0-4.72 3.84-8.56 8.56-8.56s8.56 3.84 8.56 8.56v18.45c0 4.72-3.84 8.56-8.56 8.56z" fill="url(#g)"/>
  <path d="m54.73 45.05c3.89 0 7.06 3.17 7.06 7.06v18.45c0 3.89-3.17 7.06-7.06 7.06s-7.06-3.17-7.06-7.06v-18.46c0-3.89 3.17-7.05 7.06-7.05m0-3c-5.55 0-10.06 4.5-10.06 10.06v18.45c0 5.55 4.5 10.06 10.06 10.06 5.55 0 10.06-4.5 10.06-10.06v-18.46c0-5.55-4.5-10.05-10.06-10.05z" fill="#EDA600"/>
  <radialGradient id="f" cx="-140.77" cy="-33.31" gradientTransform="matrix(-.001885 1.0497 -.6804 -.0018024 11.585 203.66)" gradientUnits="userSpaceOnUse" r="18.218">
    <stop offset=".5993" stop-color="#FFCA28"/>
    <stop offset="1" stop-color="#FFB300"/>
  </radialGradient>
  <path d="m34.71 80.28c-4.68 0-8.49-3.81-8.49-8.49v-14.08c0-4.68 3.81-8.49 8.49-8.49s8.49 3.81 8.49 8.49v14.08c0 4.68-3.81 8.49-8.49 8.49z" fill="url(#f)"/>
  <path d="m34.71 50.72c3.85 0 6.99 3.14 6.99 6.99v14.08c0 3.85-3.14 6.99-6.99 6.99s-6.99-3.14-6.99-6.99v-14.08c0-3.85 3.13-6.99 6.99-6.99m0-3c-5.52 0-9.99 4.47-9.99 9.99v14.08c0 5.52 4.47 9.99 9.99 9.99s9.99-4.47 9.99-9.99v-14.08c0-5.52-4.48-9.99-9.99-9.99z" fill="#EDA600"/>
  <defs>
    <path id="e" d="m91.99 77.98c-6.22 1.86-10.31 0.81-10.31 0.81l-20.37-61.88c-1.7-5.16 1.11-10.72 6.26-12.41 5.16-1.7 10.72 1.11 12.41 6.26l20.37 61.88c0.89 2.69-1.42 5.24-1.42 5.24l-1.23-3.48c0.02 0.01-2.48 2.62-5.71 3.58z"/>
  </defs>
  <clipPath id="d">
    <use xlink:href="#e"/>
  </clipPath>
  <g clip-path="url(#d)">
    <radialGradient id="c" cx="-752.81" cy="-1177.3" gradientTransform="matrix(.659 2.0141 -.1346 .0426 404.49 1568.2)" gradientUnits="userSpaceOnUse" r="88.77">
      <stop offset="0" stop-color="#FFCA28"/>
      <stop offset=".1123" stop-color="#FFC41E"/>
      <stop offset=".3687" stop-color="#FFBB0D"/>
      <stop offset=".6499" stop-color="#FFB503"/>
      <stop offset="1" stop-color="#FFB300"/>
    </radialGradient>
    <path d="m91.02 84.05c-3.61 0-6.79-2.3-7.91-5.73l-20.38-61.88c-0.7-2.11-0.53-4.37 0.48-6.36 1-1.99 2.72-3.46 4.83-4.16 0.85-0.28 1.73-0.42 2.61-0.42 3.6 0 6.78 2.3 7.91 5.73l20.37 61.88c0.7 2.11 0.53 4.37-0.48 6.36-1 1.99-2.72 3.46-4.83 4.16-0.84 0.28-1.72 0.42-2.6 0.42z" fill="url(#c)"/>
    <path d="m70.65 7c2.96 0 5.56 1.89 6.49 4.7l20.37 61.88c1.18 3.58-0.77 7.45-4.35 8.63-0.7 0.23-1.42 0.35-2.14 0.35-2.96 0-5.56-1.89-6.49-4.7l-20.37-61.88c-1.18-3.58 0.77-7.45 4.35-8.63 0.7-0.23 1.42-0.35 2.14-0.35m0-3c-1.02 0-2.06 0.16-3.08 0.5-5.16 1.7-7.96 7.26-6.26 12.41l20.37 61.88c1.36 4.14 5.21 6.76 9.34 6.76 1.02 0 2.06-0.16 3.08-0.5 5.16-1.7 7.96-7.26 6.26-12.41l-20.37-61.88c-1.37-4.13-5.21-6.76-9.34-6.76z" fill="#EDA600"/>
  </g>
  <path d="m87.89 89.9c-3.71-1.09-7.79-1.48-11.37 0.26-3.7 1.8-5.57 5.42-7.06 9.06-0.73 1.79 2.17 2.56 2.89 0.8 1.23-3 2.8-6.05 5.96-7.35 2.85-1.18 5.91-0.72 8.78 0.13 1.86 0.54 2.65-2.35 0.8-2.9z" fill="#EDA600"/>
  <defs>
    <path id="b" d="m54.83 70.24c-7.26 0-8.46 7.56-6.72 11.88 1.73 4.32 6.89 7.33 11.49 6.91 16.48-1.51 20.62 0.94 22.77 5.4 2.96 6.16 6.51 6.47 10.12 6.07 5.28-0.58 6.98-9.89 7.2-18.93 0.26-10.22-20.14-13.7-20.14-13.7s-21.25 2.37-24.72 2.37z"/>
  </defs>
  <clipPath id="a">
    <use xlink:href="#b"/>
  </clipPath>
  <g clip-path="url(#a)">
    <radialGradient id="j" cx="69.661" cy="65.901" gradientUnits="userSpaceOnUse" r="47.633">
      <stop offset=".3564" stop-color="#FFCA28"/>
      <stop offset=".5051" stop-color="#FFB300"/>
    </radialGradient>
    <path d="m93.38 103.44c-2.97-0.05-6.94-4.02-9.66-9.66-2.32-4.82-6.69-6.7-15.61-6.7-2.5 0-5.32 0.15-8.65 0.45-0.24 0.02-0.49 0.03-0.73 0.03-3.82 0-7.88-2.64-9.23-6.01-0.84-2.09-0.91-5.35 0.58-7.55 1.02-1.5 2.62-2.27 4.75-2.27 3.34 0 22.08-2.07 24.63-2.36 6.85 1.63 23.91 7.24 24.62 14.6 0.76 7.99-0.25 13.58-3.01 16.62-1.73 1.91-4.15 2.83-7.39 2.83l-0.3 0.02z" fill="url(#j)"/>
    <path d="m79.36 70.91c1.55 0.39 6.59 1.73 11.66 3.89 7.07 3.02 11.29 6.42 11.57 9.33 0.72 7.55-0.16 12.75-2.63 15.47-1.43 1.58-3.49 2.34-6.28 2.34h-0.27c-2.03-0.04-5.7-3.34-8.33-8.81-2.58-5.36-7.49-7.54-16.96-7.54-2.54 0-5.42 0.15-8.79 0.46-0.19 0.02-0.39 0.03-0.6 0.03-3.25 0-6.7-2.23-7.84-5.07-0.67-1.68-0.75-4.4 0.43-6.15 0.73-1.08 1.88-1.61 3.51-1.61 3.34-0.01 20.73-1.92 24.53-2.34m0.19-3.04s-21.25 2.38-24.72 2.38c-7.26 0-8.46 7.56-6.72 11.88 1.63 4.05 6.26 6.95 10.62 6.95 0.29 0 0.58-0.01 0.87-0.04 3.31-0.3 6.12-0.45 8.51-0.45 9.55 0 12.54 2.28 14.25 5.85 2.96 6.16 7.36 10.45 10.98 10.51h0.32c12.05 0 12.76-12.1 11.9-21.1-0.96-10.18-26.01-15.98-26.01-15.98z" fill="#EDA600"/>
  </g>
</svg>

<svg viewBox="0 0 128 128" xmlns="http://www.w3.org/2000/svg">
  <defs>
    <radialGradient id="c" cx="10.334809" cy="-446.078388" gradientTransform="matrix(0.659 2.0141 -0.1346 0.0426 0 0)" gradientUnits="userSpaceOnUse" r="88.77">
      <stop offset="0" stop-color="#FFCA28"/>
      <stop offset=".1123" stop-color="#FFC41E"/>
      <stop offset=".3687" stop-color="#FFBB0D"/>
      <stop offset=".6499" stop-color="#FFB503"/>
      <stop offset="1" stop-color="#FFB300"/>
    </radialGradient>
    <radialGradient id="f" cx="53.21718" cy="-50.874177" gradientTransform="matrix(-0.001885 1.0497 -0.6804 -0.001802 0 0)" gradientUnits="userSpaceOnUse" r="18.218">
      <stop offset=".5993" stop-color="#FFCA28"/>
      <stop offset="1" stop-color="#FFB300"/>
    </radialGradient>
    <radialGradient id="g" cx="48.41787" cy="-81.190838" gradientTransform="matrix(0.0108 1.05 -0.6645 0.0104 0 0)" gradientUnits="userSpaceOnUse" r="21.561">
      <stop offset=".5993" stop-color="#FFCA28"/>
      <stop offset="1" stop-color="#FFB300"/>
    </radialGradient>
    <radialGradient id="h" cx="-105.91391" cy="-6.652333" gradientTransform="matrix(-0.808 -0.266 -0.6312 1.9172 0 0)" gradientUnits="userSpaceOnUse" r="22.669">
      <stop offset="0" stop-color="#FFCA28"/>
      <stop offset=".5" stop-color="#FFB300"/>
    </radialGradient>
    <radialGradient id="i" cx="80.306237" cy="48.897363" gradientTransform="matrix(0.9722 0.2342 -0.3166 1.3142 0 0)" gradientUnits="userSpaceOnUse" r="35.101">
      <stop offset="0" stop-color="#FFB300"/>
      <stop offset=".6888" stop-color="#FFCA28"/>
      <stop offset="1" stop-color="#FFB300"/>
    </radialGradient>
    <radialGradient id="j" cx="69.661" cy="65.901" gradientUnits="userSpaceOnUse" r="47.633">
      <stop offset=".3564" stop-color="#FFCA28"/>
      <stop offset=".5051" stop-color="#FFB300"/>
    </radialGradient>
  </defs>
  <path d="M63.78,122.64 C38.66,122.64 26.45,109.78 26.45,83.33 L26.45,61.05 C26.45,60.25 26.51,59.76 26.57,59.46 C27.3,59.88 28.65,61.04 29.68,61.94 C33.1,64.9 37.77,68.94 43.16,68.94 L72.85,68.94 C73.33,68.94 74.05,68.93 74.94,68.91 C76.39,68.88 78.31,68.84 80.45,68.84 C97.11,68.84 98.3,71.33 98.38,71.61 C98.66,72.58 99.03,73.57 99.42,74.61 C100.53,77.56 101.78,80.89 101.78,85.74 C101.78,99.52 96.85,122.64 63.78,122.64 Z" fill="url(#i)"/>
  <path d="M27.95,62.43 C28.21,62.65 28.46,62.87 28.7,63.07 C32.29,66.18 37.22,70.44 43.16,70.44 L72.85,70.44 C73.34,70.44 74.06,70.43 74.97,70.41 C76.39,70.38 78.33,70.34 80.46,70.34 C93.47,70.34 96.45,71.87 97.03,72.3 C97.31,73.23 97.66,74.16 98.03,75.14 C99.09,77.97 100.3,81.17 100.3,85.74 C100.3,92.74 98.96,102.66 92.6,110.18 C86.45,117.45 76.76,121.14 63.8,121.14 C50.72,121.14 41.16,117.49 35.38,110.28 C30.46,104.14 27.97,95.08 27.97,83.34 L27.97,62.43 M26.21,57.81 C25.4,57.81 24.95,58.71 24.95,61.05 L24.95,83.33 C24.95,105.77 33.53,124.14 63.78,124.14 C94.03,124.14 103.28,104.89 103.28,85.74 C103.28,78.83 100.81,74.69 99.82,71.2 C98.87,67.86 88.24,67.34 80.45,67.34 C77,67.34 74.1,67.44 72.85,67.44 L43.16,67.44 C35.49,67.45 28.88,57.81 26.21,57.81 Z" fill="#EDA600"/>
  <path d="M71.37,80.08 C70.49,80.08 69.61,79.94 68.76,79.66 C64.4,78.22 62.01,73.5 63.45,69.14 L82.56,11.09 C83.69,7.66 86.87,5.36 90.47,5.36 C91.35,5.36 92.23,5.5 93.08,5.78 C97.44,7.22 99.83,11.94 98.39,16.3 L79.29,74.35 C78.16,77.77 74.98,80.08 71.37,80.08 Z" fill="url(#h)"/>
  <path d="M90.48,6.86 C91.2,6.86 91.92,6.98 92.62,7.21 C94.35,7.78 95.76,8.99 96.58,10.62 C97.4,12.25 97.54,14.1 96.97,15.83 L77.86,73.88 C76.93,76.69 74.33,78.58 71.37,78.58 C70.65,78.58 69.93,78.46 69.23,78.23 C67.5,77.66 66.09,76.45 65.27,74.82 C64.45,73.19 64.31,71.34 64.88,69.61 L83.99,11.56 C84.92,8.75 87.52,6.86 90.48,6.86 M90.48,3.86 C86.35,3.86 82.5,6.48 81.14,10.62 L62.03,68.67 C60.33,73.83 63.14,79.39 68.29,81.08 C69.31,81.42 70.35,81.58 71.37,81.58 C75.5,81.58 79.35,78.96 80.71,74.82 L99.82,16.77 C101.52,11.61 98.71,6.05 93.56,4.36 C92.54,4.02 91.5,3.86 90.48,3.86 Z" fill="#EDA600"/>
  <path d="M54.73,79.11 C50.01,79.11 46.17,75.27 46.17,70.55 L46.17,52.1 C46.17,47.38 50.01,43.54 54.73,43.54 C59.45,43.54 63.29,47.38 63.29,52.1 L63.29,70.55 C63.29,75.27 59.45,79.11 54.73,79.11 Z" fill="url(#g)"/>
  <path d="M54.73,45.05 C58.62,45.05 61.79,48.22 61.79,52.11 L61.79,70.56 C61.79,74.45 58.62,77.62 54.73,77.62 C50.84,77.62 47.67,74.45 47.67,70.56 L47.67,52.1 C47.67,48.21 50.84,45.05 54.73,45.05 M54.73,42.05 C49.18,42.05 44.67,46.55 44.67,52.11 L44.67,70.56 C44.67,76.11 49.17,80.62 54.73,80.62 C60.28,80.62 64.79,76.12 64.79,70.56 L64.79,52.1 C64.79,46.55 60.29,42.05 54.73,42.05 Z" fill="#EDA600"/>
  <path d="M34.71,80.28 C30.03,80.28 26.22,76.47 26.22,71.79 L26.22,57.71 C26.22,53.03 30.03,49.22 34.71,49.22 C39.39,49.22 43.2,53.03 43.2,57.71 L43.2,71.79 C43.2,76.47 39.39,80.28 34.71,80.28 Z" fill="url(#f)"/>
  <path d="M34.71,50.72 C38.56,50.72 41.7,53.86 41.7,57.71 L41.7,71.79 C41.7,75.64 38.56,78.78 34.71,78.78 C30.86,78.78 27.72,75.64 27.72,71.79 L27.72,57.71 C27.72,53.86 30.85,50.72 34.71,50.72 M34.71,47.72 C29.19,47.72 24.72,52.19 24.72,57.71 L24.72,71.79 C24.72,77.31 29.19,81.78 34.71,81.78 C40.23,81.78 44.7,77.31 44.7,71.79 L44.7,57.71 C44.7,52.19 40.22,47.72 34.71,47.72 Z" fill="#EDA600"/>
  <path d="M91.99,77.98 C88.158,79.126 85.135,79.167 83.378,79.03 C83.279,78.799 83.189,78.563 83.11,78.32 L62.73,16.44 C62.03,14.33 62.2,12.07 63.21,10.08 C64.21,8.09 65.93,6.62 68.04,5.92 C68.89,5.64 69.77,5.5 70.65,5.5 C74.25,5.5 77.43,7.8 78.56,11.23 L98.93,73.11 C99.423,74.595 99.484,76.155 99.125,77.642 C99.006,77.796 98.93,77.88 98.93,77.88 L97.7,74.4 C97.696,74.435 95.205,77.025 91.99,77.98 Z" fill="url(#c)"/>
  <path d="M70.65,7 C69.93,7 69.21,7.12 68.51,7.35 C64.93,8.53 62.98,12.4 64.16,15.98 L84.53,77.86 C84.673,78.291 84.854,78.7 85.071,79.084 C82.919,79.108 81.68,78.79 81.68,78.79 L61.31,16.91 C59.61,11.75 62.42,6.19 67.57,4.5 C72.73,2.8 78.29,5.61 79.98,10.76 L100.35,72.64 C101.24,75.33 98.93,77.88 98.93,77.88 L97.754,74.552 C97.697,74.227 97.616,73.902 97.51,73.58 L77.14,11.7 C76.21,8.89 73.61,7 70.65,7 Z" fill="#EDA600"/>
  <path d="M87.89,89.9 C84.18,88.81 80.1,88.42 76.52,90.16 C72.82,91.96 70.95,95.58 69.46,99.22 C68.73,101.01 71.63,101.78 72.35,100.02 C73.58,97.02 75.15,93.97 78.31,92.67 C81.16,91.49 84.22,91.95 87.09,92.8 C88.95,93.34 89.74,90.45 87.89,89.9 Z" fill="#EDA600"/>
  <path d="M98.107,76.749 C99.132,78.156 99.736,79.757 99.69,81.57 C99.47,90.61 97.77,99.92 92.49,100.5 C90.975,100.668 89.47,100.711 88.015,100.248 C86.465,98.583 84.962,96.356 83.72,93.78 C81.4,88.96 77.03,87.08 68.11,87.08 C65.61,87.08 62.79,87.23 59.46,87.53 C59.22,87.55 58.97,87.56 58.73,87.56 C54.91,87.56 50.85,84.92 49.5,81.55 C48.66,79.46 48.59,76.2 50.08,74 C51.1,72.5 52.7,71.73 54.83,71.73 C58.17,71.73 76.91,69.66 79.46,69.37 C83.822,70.408 92.323,73.059 98.107,76.749 Z" fill="url(#j)"/>
  <path d="M79.36,70.91 C75.56,71.33 58.17,73.24 54.83,73.25 C53.2,73.25 52.05,73.78 51.32,74.86 C50.14,76.61 50.22,79.33 50.89,81.01 C52.03,83.85 55.48,86.08 58.73,86.08 C58.94,86.08 59.14,86.07 59.33,86.05 C62.7,85.74 65.58,85.59 68.12,85.59 C77.59,85.59 82.5,87.77 85.08,93.13 C86.739,96.58 88.812,99.167 90.626,100.617 C87.67,100.618 84.818,99.525 82.37,94.43 C80.22,89.97 76.08,87.52 59.6,89.03 C55,89.45 49.84,86.44 48.11,82.12 C47.658,80.998 47.404,79.657 47.404,78.288 C47.406,74.386 49.46,70.25 54.83,70.25 C58.3,70.25 79.55,67.87 79.55,67.87 C79.55,67.87 85.735,69.302 92.076,71.992 C95.575,73.807 98.654,76.297 99.477,79.609 C97.498,77.984 94.631,76.342 91.02,74.8 C85.95,72.64 80.91,71.3 79.36,70.91 Z" fill="#EDA600"/>
</svg>
